usr/share/icons/biglinux-icons-material/symbolic/places/folder-new-symbolic.svg

<svg width="16" height="16" version="1.1" xmlns="http://www.w3.org/2000/svg">
 <defs>
  <style id="current-color-scheme" type="text/css">.ColorScheme-Text { color:#dedede; }</style>
 </defs>
 <path class="ColorScheme-Text" d="m12.5 8a3.5 3.5 0 0 0-3.5 3.5 3.5 3.5 0 0 0 3.5 3.5 3.5 3.5 0 0 0 3.5-3.5 3.5 3.5 0 0 0-3.5-3.5zm0 1c0.277 0 0.5 0.223 0.5 0.5v1.5h1.5c0.277 0 0.5 0.223 0.5 0.5s-0.223 0.5-0.5 0.5h-1.5v1.5c0 0.277-0.223 0.5-0.5 0.5s-0.5-0.223-0.5-0.5v-1.5h-1.5c-0.277 0-0.5-0.223-0.5-0.5s0.223-0.5 0.5-0.5h1.5v-1.5c0-0.277 0.223-0.5 0.5-0.5z" fill="currentColor"/>
 <path d="m2 1c-1.108 0-2 0.892-2 2v10c0 1.108 0.892 2 2 2h7.6719a4.5 4.5 0 0 1-0.91211-1h-6.7598c-0.554 0-1-0.446-1-1v-7h5l2-2h6c0.554 0 1 0.446 1 1v2.7578a4.5 4.5 0 0 1 1 0.91602v-3.6738c0-1.108-0.892-2-2-2h-6l-2-2h-4zm0 1h3.5859l1.4961 1.5039-1.4961 1.4961h-4.5859v-2c0-0.554 0.446-1 1-1z" fill="#dedede" style="paint-order:stroke fill markers"/>
</svg>

<svg xmlns="http://www.w3.org/2000/svg" width="16" height="16"><path fill="currentColor" d="M12.5 8A3.5 3.5 0 0 0 9 11.5a3.5 3.5 0 0 0 3.5 3.5 3.5 3.5 0 0 0 3.5-3.5A3.5 3.5 0 0 0 12.5 8zm0 1c.277 0 .5.223.5.5V11h1.5a.499.499 0 1 1 0 1H13v1.5a.499.499 0 1 1-1 0V12h-1.5a.499.499 0 1 1 0-1H12V9.5c0-.277.223-.5.5-.5z" style="color:#dedede"/><path fill="#dedede" d="M2 1C.892 1 0 1.892 0 3v10c0 1.108.892 2 2 2h7.672a4.5 4.5 0 0 1-.912-1H2c-.554 0-1-.446-1-1V6h5l2-2h6c.554 0 1 .446 1 1v2.758a4.5 4.5 0 0 1 1 .916V5c0-1.108-.892-2-2-2H8L6 1H2zm0 1h3.586l1.496 1.504L5.586 5H1V3c0-.554.446-1 1-1z" style="paint-order:stroke fill markers"/></svg>
